X: 1329
T: Lâyık mı Sana
C: Şekerci Cemil Bey
O: Turkey
F: http://compmusic.upf.edu/node/140
N: hicazkar--sarki--senginsemai--layik_mi--sekerci_cemil_bey
N: makam= hicazkar
N: form= sarki
N: usul= senginsemai = 6/4
M: 6/4
L: 1/16
K: C _1/4B _7/8e _7/8A ^f
Q: 1/4=66
%%MIDI tuningsystem comma53
c3d e3f g3f e3d c8  | b3a g3f e3d cdef g8  | \
w:  ARANAĞME  |   | 
f3g a3g f3e d3c B8  | 
w:   | 
Bcde dccB B3c BAAG G8  | c3d e3f g3f e3d c8  | 
w:   |  ARANAĞME  | 
b3a g3f e3d cdef g8  | f3g a3g f3e d3c B8  | \
w:   |   | 
Bcde dccB B3c BAAG G8  | 
w:   | 
f4 g3f f3e feed d4 dedc  | z2Bc dedc B3c BAAG G8  | 
w:  Lâ yık  *  mı  *  sa *  *  *  na   |  bu  *  *  *  *  *  dil_ *  i  *  *  *  sev  | 
z2fg =a2_b2 a2ga g2f2 gfef e2d2  | \
w:  dâ   | 
z2fg a3g g3f f3e edc2 dfed  | 
w:  dâ *  *  *  ze *  de  *  yan  | 
d8 dedc BABc d3g fag2  | g3f e3d c4 =f4 gfef e2d2  | 
w:  sın   SAZ  |  Bu  *  â *  teş_ i  hic  | 
z2cd efed d3c edcB c8  | d2ef e2de d2cd c2B2 dcBA GABc  | 
w:  râ *  *  *  *  *  na  *  na *  *  *  sıl   |  sî   | 
d2cd efed dccB A2Bc _3/4d2cB BAAG  | 
w:  *  sî *  *  *  *  *  ne  *  *  *  da *  *  yan  | 
G3A B2c2 d2cB dfed d3g fag2  | g3f e3d c4 =f4 gfef e2d2  | 
w:  sın   SAZ  |  Bu  *  â *  teş_ i  hic  | 
z2cd efed d3c edcB c8  | d2ef e2de d2cd c2B2 dcBA GABc  | 
w:  râ *  *  *  *  *  na  *  na *  *  *  sıl   |  sî   | 
d2cd efed dccB A2Bc _3/4d2cB BAAG  | 
w:  *  sî *  *  *  *  *  ne  *  *  *  da *  *  yan  | 
G8 g=ag=f _2/4edef g3a gfg2  | =f3g g4 =agf2 g3a _bagf _3/4e2d2  | 
w:  sın   SAZ  |  Gös *  ter  a  *  *  gö *  nül   | 
z2d_3/4e =f2g2 a3g c'4 c'bag f2_2/4e2  | \
w:  yan *  *  *  dı *  ğı nı   | 
z2d_2/4e =f2g2 =a3g g3f f3e f_3/4e_7/8ed  | 
w:  yâ *  *  *  re  *  i *  nan  | 
d8 dedc BABc d3g fag2  | g3f e3d c4 =f4 gfef e2d2  | 
w:  sın   SAZ  |  Bu  *  â *  teş_ i  hic  | 
z2cd efed d3c edcB c8  | d2ef e2de d2cd c2B2 dcBA GABc  | 
w:  râ *  *  *  *  *  na  *  na *  *  *  sıl   |  sî   | 
d2cd efed dccB A2Bc _3/4d2cB BAAG  | 
w:  *  sî *  *  *  *  *  ne  *  *  *  da *  *  yan  | 
G3A B2c2 d2cB dfed d3g fag2  | g3f e3d c4 =f4 gfef e2d2  | 
w:  sın   SAZ  |  Bu  *  â *  teş_ i  hic  | 
z2cd efed d3c edcB c8  | d2ef e2de d2cd c2B2 dcBA GABc  | 
w:  râ *  *  *  *  *  na  *  na *  *  *  sıl   |  sî   | 
d2cd efed dccB A2Bc _3/4d2cB BAAG  | 
w:  *  sî *  *  *  *  *  ne  *  *  *  da *  *  yan  | 
G8 |
w:  sın    | 


